public/img/git.svg

<svg width="87" height="87" viewBox="0 0 87 87" fill="none" xmlns="http://www.w3.org/2000/svg">
<path d="M85.3594 39.6244L47.3743 1.64071C45.1881 -0.546904 41.6401 -0.546904 39.4512 1.64071L31.5634 9.52863L41.5694 19.5348C43.8946 18.7491 46.5611 19.2762 48.4146 21.1298C50.2769 22.9952 50.8003 25.6844 49.9955 28.0172L59.6386 37.6607C61.9716 36.857 64.6636 37.377 66.5269 39.2434C69.1312 41.8467 69.1312 46.0659 66.5269 48.6709C63.922 51.2762 59.7028 51.2762 57.0966 48.6709C55.1377 46.7099 54.6538 43.8331 55.6454 41.4198L46.6525 32.4267L46.6515 56.0928C47.3034 56.4152 47.8988 56.841 48.4146 57.3537C51.0188 59.9569 51.0188 64.1765 48.4146 66.7835C45.8097 69.3874 41.5885 69.3874 38.9873 66.7835C36.3831 64.1765 36.3831 59.9573 38.9873 57.354C39.6114 56.7296 40.3531 56.2351 41.1694 55.8991V32.0124C40.3519 31.6787 39.6098 31.1839 38.9873 30.5575C37.0142 28.5871 36.5397 25.6919 37.5508 23.2691L27.6871 13.4043L1.64145 39.4487C-0.54715 41.6383 -0.54715 45.1867 1.64145 47.3747L39.6272 85.359C41.8141 87.547 45.3614 87.547 47.551 85.359L85.3591 47.5511C87.547 45.3624 87.547 41.812 85.3591 39.6244" fill="#EEEEEE"/>
</svg>

<svg xmlns="http://www.w3.org/2000/svg" width="87" height="87" fill="none" xmlns:v="https://vecta.io/nano"><path d="M85.359 39.624L47.374 1.641c-2.186-2.188-5.734-2.188-7.923 0l-7.888 7.888 10.006 10.006c2.325-.786 4.992-.259 6.845 1.595 1.862 1.865 2.386 4.555 1.581 6.887l9.643 9.644c2.333-.804 5.025-.284 6.888 1.583 2.604 2.603 2.604 6.822 0 9.428s-6.824 2.605-9.43 0c-1.959-1.961-2.443-4.838-1.451-7.251l-8.993-8.993-.001 23.666a6.74 6.74 0 0 1 1.763 1.261 6.67 6.67 0 0 1 0 9.43c-2.605 2.604-6.826 2.604-9.427 0a6.67 6.67 0 0 1 0-9.43 6.68 6.68 0 0 1 2.182-1.455V32.012c-.818-.334-1.56-.828-2.182-1.455-1.973-1.97-2.448-4.866-1.436-7.288l-9.864-9.865L1.641 39.449c-2.189 2.19-2.189 5.738 0 7.926l37.986 37.984c2.187 2.188 5.734 2.188 7.924 0l37.808-37.808a5.61 5.61 0 0 0 0-7.927" fill="#eee"/></svg>
